app/img/solutions/ic_telecom.svg

<svg width="33" height="27" viewBox="0 0 33 27" fill="none" xmlns="http://www.w3.org/2000/svg">
    <path d="M19.4675 12.6803C19.0844 11.4968 17.9081 10.6287 16.4998 10.6287C15.0914 10.6287 13.9152 11.4968 13.532 12.6803C13.4477 12.9406 13.3887 13.2106 13.3887 13.4961C13.3887 13.7817 13.4477 14.0517 13.532 14.3119C13.9152 15.4954 15.0911 16.3636 16.4998 16.3636C17.9085 16.3636 19.0844 15.4954 19.4675 14.3119C19.5519 14.0517 19.6109 13.7817 19.6109 13.4961C19.6109 13.2106 19.5519 12.9406 19.4675 12.6803Z"
          fill="#80FF9F"/>
    <path d="M22.1633 23.7064C21.8846 23.7064 21.6148 23.5706 21.4707 23.3296C21.2595 22.9775 21.3988 22.5344 21.7809 22.3405C25.2887 20.5578 27.4682 17.1682 27.4682 13.4962C27.4682 9.83015 25.2942 6.4443 21.7948 4.65962C21.4131 4.46463 21.2749 4.02159 21.4861 3.66979C21.6976 3.319 22.1769 3.19059 22.56 3.38524C26.5621 5.42642 29.0481 9.30093 29.0481 13.4962C29.0481 17.6988 26.5559 21.5767 22.5439 23.6162C22.4229 23.6774 22.2924 23.7064 22.1633 23.7064Z"
          fill="#80FF9F"/>
    <path d="M20.4843 20.4117C20.2148 20.4117 19.9519 20.2843 19.8045 20.0555C19.5816 19.7098 19.7044 19.2633 20.0799 19.0579C22.2006 17.896 23.5181 15.7646 23.5181 13.496C23.5181 11.199 22.2377 9.12295 20.0934 7.94184C19.7187 7.73569 19.5966 7.28859 19.8203 6.94355C20.0439 6.59817 20.529 6.48529 20.9034 6.69178C23.4909 8.11622 25.098 10.7231 25.098 13.496C25.098 16.2759 23.4843 18.8865 20.8869 20.3093C20.7608 20.3789 20.6218 20.4117 20.4843 20.4117Z"
          fill="#80FF9F"/>
    <path d="M12.5141 20.4118C12.3766 20.4118 12.238 20.379 12.1115 20.3094C9.51408 18.8863 7.90039 16.2757 7.90039 13.4961C7.90039 10.7233 9.50748 8.11637 12.095 6.69194C12.4697 6.48444 12.9541 6.59799 13.1781 6.94371C13.4018 7.28908 13.2797 7.73585 12.905 7.94199C10.7607 9.12277 9.48034 11.1991 9.48034 13.4961C9.48034 15.7647 10.7978 17.8958 12.9185 19.058C13.294 19.2635 13.4168 19.7102 13.1939 20.0556C13.0465 20.2844 12.7836 20.4118 12.5141 20.4118Z"
          fill="#80FF9F"/>
    <path d="M10.836 23.7063C10.7073 23.7063 10.5764 23.6773 10.4554 23.6161C6.44338 21.5766 3.95117 17.6988 3.95117 13.4961C3.95117 9.30089 6.43715 5.42639 10.4393 3.38522C10.8232 3.19022 11.3028 3.31864 11.5132 3.66976C11.7248 4.0219 11.5862 4.46494 11.2045 4.6596C7.70507 6.44427 5.53112 9.83011 5.53112 13.4961C5.53112 17.1685 7.71057 20.5577 11.2184 22.3404C11.6005 22.5344 11.7395 22.9774 11.5286 23.3295C11.3845 23.5705 11.1143 23.7063 10.836 23.7063Z"
          fill="#80FF9F"/>
    <path d="M23.8427 26.9996C23.5596 26.9996 23.2861 26.8593 23.1442 26.6126C22.9396 26.2578 23.0859 25.8168 23.4713 25.6286C28.3739 23.2278 31.419 18.5791 31.419 13.4957C31.419 8.41917 28.379 3.77313 23.4859 1.37103C23.1009 1.18178 22.955 0.740769 23.16 0.385591C23.3657 0.0310889 23.8434 -0.103074 24.2292 0.0851598C29.6389 2.74139 32.9993 7.88015 32.9993 13.4961C32.9993 19.1191 29.6326 24.2606 24.2127 26.9144C24.0946 26.9726 23.9677 26.9996 23.8427 26.9996Z"
          fill="#80FF9F"/>
    <path d="M22.1633 23.7064C21.8846 23.7064 21.6148 23.5706 21.4707 23.3296C21.2595 22.9775 21.3988 22.5344 21.7809 22.3405C25.2887 20.5578 27.4682 17.1682 27.4682 13.4962C27.4682 9.83015 25.2942 6.4443 21.7948 4.65962C21.4131 4.46463 21.2749 4.02159 21.4861 3.66979C21.6976 3.319 22.1769 3.19059 22.56 3.38524C26.5621 5.42642 29.0481 9.30093 29.0481 13.4962C29.0481 17.6988 26.5559 21.5767 22.5439 23.6162C22.4229 23.6774 22.2924 23.7064 22.1633 23.7064Z"
          fill="#80FF9F"/>
    <path d="M10.836 23.7063C10.7073 23.7063 10.5764 23.6773 10.4554 23.6161C6.44338 21.5766 3.95117 17.6988 3.95117 13.4961C3.95117 9.30089 6.43715 5.42639 10.4393 3.38522C10.8232 3.19022 11.3028 3.31864 11.5132 3.66976C11.7248 4.0219 11.5862 4.46494 11.2045 4.6596C7.70507 6.44427 5.53112 9.83011 5.53112 13.4961C5.53112 17.1685 7.71057 20.5577 11.2184 22.3404C11.6005 22.5344 11.7395 22.9774 11.5286 23.3295C11.3845 23.5705 11.1143 23.7063 10.836 23.7063Z"
          fill="#80FF9F"/>
    <path d="M9.15663 26.9998C9.03159 26.9998 8.90473 26.9728 8.78667 26.9143C3.36668 24.2605 0 19.119 0 13.4962C0 7.88029 3.36045 2.74184 8.77053 0.0852549C9.15626 -0.102642 9.63439 0.0311837 9.83972 0.385688C10.0447 0.740529 9.89875 1.18189 9.51375 1.37113C4.6203 3.77324 1.58031 8.41931 1.58031 13.4962C1.58031 18.5796 4.6258 23.228 9.52805 25.6291C9.91341 25.8177 10.0597 26.2584 9.85512 26.6132C9.71322 26.8599 9.43932 26.9998 9.15663 26.9998Z"
          fill="#80FF9F"/>
</svg>

<svg width="33" height="27" fill="none" xmlns="http://www.w3.org/2000/svg"><path d="M19.468 12.68c-.384-1.183-1.56-2.051-2.968-2.051-1.409 0-2.585.868-2.968 2.051-.084.26-.143.53-.143.816 0 .286.059.556.143.816.383 1.183 1.56 2.052 2.968 2.052 1.409 0 2.584-.869 2.968-2.052.084-.26.143-.53.143-.816a2.63 2.63 0 0 0-.143-.816ZM22.163 23.706a.802.802 0 0 1-.692-.376c-.212-.352-.072-.796.31-.99 3.508-1.782 5.687-5.172 5.687-8.844 0-3.666-2.174-7.052-5.673-8.836-.382-.195-.52-.638-.309-.99.212-.351.69-.48 1.074-.285 4.002 2.041 6.488 5.916 6.488 10.111 0 4.203-2.492 8.08-6.504 10.12a.842.842 0 0 1-.38.09Z" fill="#80FF9F"/><path d="M20.484 20.412a.806.806 0 0 1-.68-.357c-.222-.345-.1-.792.276-.997 2.12-1.162 3.438-3.293 3.438-5.562 0-2.297-1.28-4.373-3.425-5.554-.374-.206-.496-.653-.273-.998.224-.346.709-.459 1.083-.252 2.588 1.424 4.195 4.031 4.195 6.804 0 2.78-1.614 5.39-4.211 6.813a.832.832 0 0 1-.403.103ZM12.514 20.412a.833.833 0 0 1-.402-.103C9.514 18.886 7.9 16.276 7.9 13.496c0-2.773 1.607-5.38 4.195-6.804.375-.208.86-.094 1.083.252.224.345.102.792-.273.998-2.144 1.18-3.425 3.257-3.425 5.554 0 2.269 1.318 4.4 3.438 5.562.376.206.499.652.276.998a.806.806 0 0 1-.68.356Z" fill="#80FF9F"/><path d="M10.836 23.706a.843.843 0 0 1-.38-.09C6.442 21.576 3.95 17.7 3.95 13.496c0-4.195 2.486-8.07 6.488-10.11.384-.196.864-.067 1.074.284.212.352.073.795-.309.99-3.499 1.784-5.673 5.17-5.673 8.836 0 3.673 2.18 7.062 5.687 8.844.383.194.521.637.31.99a.803.803 0 0 1-.692.376ZM23.843 27a.801.801 0 0 1-.699-.387c-.204-.355-.058-.796.327-.984 4.903-2.401 7.948-7.05 7.948-12.133 0-5.077-3.04-9.723-7.933-12.125-.385-.19-.531-.63-.326-.985.206-.355.683-.49 1.07-.3C29.638 2.74 33 7.88 33 13.495c0 5.623-3.367 10.765-8.787 13.418a.836.836 0 0 1-.37.086Z" fill="#80FF9F"/><path d="M22.163 23.706a.802.802 0 0 1-.692-.376c-.212-.352-.072-.796.31-.99 3.508-1.782 5.687-5.172 5.687-8.844 0-3.666-2.174-7.052-5.673-8.836-.382-.195-.52-.638-.309-.99.212-.351.69-.48 1.074-.285 4.002 2.041 6.488 5.916 6.488 10.111 0 4.203-2.492 8.08-6.504 10.12a.842.842 0 0 1-.38.09ZM10.836 23.706a.843.843 0 0 1-.38-.09C6.442 21.576 3.95 17.7 3.95 13.496c0-4.195 2.486-8.07 6.488-10.11.384-.196.864-.067 1.074.284.212.352.073.795-.309.99-3.499 1.784-5.673 5.17-5.673 8.836 0 3.673 2.18 7.062 5.687 8.844.383.194.521.637.31.99a.803.803 0 0 1-.692.376Z" fill="#80FF9F"/><path d="M9.157 27a.831.831 0 0 1-.37-.086C3.367 24.26 0 19.12 0 13.496 0 7.88 3.36 2.742 8.77.086c.386-.189.864-.055 1.07.3.205.355.059.796-.326.985C4.62 3.773 1.58 8.42 1.58 13.496c0 5.084 3.046 9.732 7.948 12.133.385.189.532.63.327.984a.801.801 0 0 1-.698.387Z" fill="#80FF9F"/></svg>
